dapp/src/images/analytics-icon.svg

<svg fill="none" height="18" viewBox="0 0 21 18" width="21" xmlns="http://www.w3.org/2000/svg"><g clip-rule="evenodd" fill="#888c92" fill-rule="evenodd"><path d="m19.2549.231804c.4243.353564.4816.984126.1281 1.408406l-5 6c-.3408.40899-.9423.47924-1.3682.15982l-3.25814-2.44358-6.38932 7.30205c-.36369.4157-.99545.4578-1.41108.0941-.41564-.3637-.45776-.9954-.09408-1.4111l7-7.99998c.34446-.39367.93411-.45535 1.35262-.14149l3.2399 2.42998 4.3918-5.270169c.3536-.4242773.9842-.481601 1.4084-.128037z"/><path d="m.614746 17c0-.5523.447714-1 1.000004-1h17.99995c.5523 0 1 .4477 1 1s-.4477 1-1 1h-17.99995c-.55229 0-1.000004-.4477-1.000004-1z"/></g></svg>

<svg width="21" height="18" viewBox="0 0 21 18" fill="none" xmlns="http://www.w3.org/2000/svg">
<path fill-rule="evenodd" clip-rule="evenodd" d="M19.2549 0.231804C19.6792 0.585368 19.7365 1.21593 19.383 1.64021L14.383 7.64021C14.0422 8.0492 13.4407 8.11945 13.0148 7.80003L9.75666 5.35645L3.36734 12.6585C3.00365 13.0742 2.37189 13.1163 1.95626 12.7526C1.54062 12.3889 1.4985 11.7572 1.86218 11.3415L8.86218 3.34152C9.20664 2.94785 9.79629 2.88617 10.2148 3.20003L13.4547 5.63001L17.8465 0.359841C18.2001 -0.0644363 18.8307 -0.12176 19.2549 0.231804Z" fill="#888C92"/>
<path fill-rule="evenodd" clip-rule="evenodd" d="M0.614746 17C0.614746 16.4477 1.06246 16 1.61475 16H19.6147C20.167 16 20.6147 16.4477 20.6147 17C20.6147 17.5523 20.167 18 19.6147 18H1.61475C1.06246 18 0.614746 17.5523 0.614746 17Z" fill="#888C92"/>
</svg>
